public/img/index_features/logs.svg

<svg width="25" height="24" viewBox="0 0 25 24" fill="none" xmlns="http://www.w3.org/2000/svg">
<g id="logs">
<path id="Line 5" d="M5.49951 5.49998L5.49951 19" stroke="white" stroke-width="2"/>
<ellipse id="Ellipse 192" cx="11.4995" cy="5.49998" rx="6" ry="2.5" stroke="white" stroke-width="2"/>
<ellipse id="Ellipse 194" cx="11.4995" cy="5.42499" rx="1.5" ry="0.625" fill="white"/>
<path id="Ellipse 193" d="M17.4995 19C17.4995 20.1046 14.8132 21 11.4995 21C8.1858 21 5.49951 20.1046 5.49951 19" stroke="white" stroke-width="2"/>
<path id="Vector 268" d="M9.49951 11V12.9153C9.49951 12.9642 9.53485 13.0059 9.58307 13.0139L12.416 13.4861C12.4642 13.4941 12.4995 13.5358 12.4995 13.5847V17" stroke="white" stroke-width="2" stroke-linecap="round"/>
<path id="Vector" d="M17.5 5.49998V10.8196C17.5 10.8981 17.5864 10.946 17.653 10.9044L21.3833 8.57289C21.4409 8.5369 21.5169 8.56755 21.5334 8.63344L21.9871 10.4484C21.9952 10.4806 21.9867 10.5148 21.9644 10.5395L17.5257 15.4715C17.5091 15.4898 17.5 15.5137 17.5 15.5384V19" stroke="white" stroke-width="2"/>
</g>
</svg>

<svg xmlns="http://www.w3.org/2000/svg" fill="none" viewBox="0 0 25 24">
    <path stroke="#fff" stroke-width="2" d="M5.5 5.5V19"/>
    <ellipse cx="11.5" cy="5.5" stroke="#fff" stroke-width="2" rx="6" ry="2.5"/>
    <ellipse cx="11.5" cy="5.4" fill="#fff" rx="1.5" ry=".6"/>
    <path stroke="#fff" stroke-width="2" d="M17.5 19c0 1.1-2.7 2-6 2s-6-.9-6-2"/>
    <path stroke="#fff" stroke-linecap="round" stroke-width="2" d="M9.5 11v2q0 0 0 0l3 .5q0 0 0 0V17"/>
    <path stroke="#fff" stroke-width="2" d="M17.5 5.5v5.3l.2.1 3.7-2.3h.1l.5 1.8v.1l-4.5 5V19"/>
</svg>
